public/img/removal/remove-status-in-progress.svg

<svg fill="none" height="24" viewBox="0 0 24 24" width="24" xmlns="http://www.w3.org/2000/svg"><g fill="#fff"><path d="m13.0552 22.8179c0 .731.6263 1.3083 1.3346 1.1578 5.4892-1.1665 9.6102-6.0851 9.6102-11.9757 0-5.89063-4.121-10.80921-9.6102-11.9757095-.7083-.1505215-1.3346.4268035-1.3346 1.1578095 0 .62682.4667 1.14647 1.0706 1.291 4.2722 1.02236 7.4506 4.89977 7.4506 9.5269 0 4.6271-3.1784 8.5045-7.4506 9.5269-.6039.1445-1.0706.6642-1.0706 1.291z"/><path d="m9.63945 21.5272c.60395.1444 1.07035.664 1.07035 1.2909 0 .731-.6258 1.3083-1.33405 1.1579-1.59191-.3381-3.06878-.9918-4.36347-1.8932-.58529-.4075-.61315-1.2449-.11047-1.7526.44682-.4512 1.15635-.4767 1.68537-.1277.92079.6074 1.95014 1.0611 3.05227 1.3247z"/><path d="m1.17032 13.1843c.62068 0 1.13517.471 1.27823 1.0809.22153.9445.57852 1.8361 1.04912 2.6526.30626.5314.26323 1.2149-.16727 1.6496-.52143.5266-1.38633.4765-1.7731-.1575-.717197-1.1758-1.242993-2.4833-1.5335325-3.8783-.1489825-.7153.4227435-1.3473 1.1465525-1.3473z"/><path d="m3.63398 4.95003c.44684.45126.4721 1.16787.12647 1.70213-.60159.92993-1.05082 1.96952-1.3119 3.08261-.14306.60993-.65755 1.08093-1.27823 1.08093-.723809 0-1.295526-.632-1.1465406-1.34733.3348526-1.60775.9821806-3.09929 1.8748506-4.40682.40352-.59106 1.23269-.61917 1.73535-.11152z"/><path d="m10.7098 1.18192c0 .62685-.4664 1.14645-1.07034 1.29091-.93517.22368-1.81794.58416-2.62646 1.05935-.52617.30925-1.20288.26578-1.63336-.16897-.52144-.52662-.47182-1.40014.15606-1.79073 1.16419-.724204 2.45884-1.25513 3.84011-1.5484854.70829-.1504286 1.33399.4269594 1.33399 1.1579254z"/></g></svg>

<svg width="24" height="24" viewBox="0 0 24 24" fill="none" xmlns="http://www.w3.org/2000/svg">
<title>A circular dotted line</title>
<path d="M13.0552 22.8179C13.0552 23.5489 13.6815 24.1262 14.3898 23.9757C19.879 22.8092 24 17.8906 24 12C24 6.10937 19.879 1.19079 14.3898 0.0242905C13.6815 -0.126231 13.0552 0.451094 13.0552 1.1821C13.0552 1.80892 13.5219 2.32857 14.1258 2.4731C18.398 3.49546 21.5764 7.37287 21.5764 12C21.5764 16.6271 18.398 20.5045 14.1258 21.5269C13.5219 21.6714 13.0552 22.1911 13.0552 22.8179Z" fill="#fff"/>
<path d="M9.63945 21.5272C10.2434 21.6716 10.7098 22.1912 10.7098 22.8181C10.7098 23.5491 10.084 24.1264 9.37575 23.976C7.78384 23.6379 6.30697 22.9842 5.01228 22.0828C4.42699 21.6753 4.39913 20.8379 4.90181 20.3302C5.34863 19.879 6.05816 19.8535 6.58718 20.2025C7.50797 20.8099 8.53732 21.2636 9.63945 21.5272Z" fill="#fff"/>
<path d="M1.17032 13.1843C1.791 13.1843 2.30549 13.6553 2.44855 14.2652C2.67008 15.2097 3.02707 16.1013 3.49767 16.9178C3.80393 17.4492 3.7609 18.1327 3.3304 18.5674C2.80897 19.094 1.94407 19.0439 1.5573 18.4099C0.840103 17.2341 0.314307 15.9266 0.0237675 14.5316C-0.125215 13.8163 0.446511 13.1843 1.17032 13.1843Z" fill="#fff"/>
<path d="M3.63398 4.95003C4.08082 5.40129 4.10608 6.1179 3.76045 6.65216C3.15886 7.58209 2.70963 8.62168 2.44855 9.73477C2.30549 10.3447 1.791 10.8157 1.17032 10.8157C0.446511 10.8157 -0.125206 10.1837 0.0237794 9.46837C0.358632 7.86062 1.00596 6.36908 1.89863 5.06155C2.30215 4.47049 3.13132 4.44238 3.63398 4.95003Z" fill="#fff"/>
<path d="M10.7098 1.18192C10.7098 1.80877 10.2434 2.32837 9.63946 2.47283C8.70429 2.69651 7.82152 3.05699 7.013 3.53218C6.48683 3.84143 5.81012 3.79796 5.37964 3.36321C4.8582 2.83659 4.90782 1.96307 5.5357 1.57248C6.69989 0.848276 7.99454 0.31735 9.37581 0.0239946C10.0841 -0.126434 10.7098 0.450954 10.7098 1.18192Z" fill="#fff"/>
</svg>
